X:21
T:Bottom of the Punchbowl
M:C|
K:D
FE|"D"D2 A2 d3 c|d2 A2 FGAF|"Em"E2 e2 efgf|"A"edcB AGFE|
"D"D2 A2 d3 e|fedc d2 A2|"G"BcdB "A"ABAG|"D"F2 D2 D2:|
|:de|"D"fedB ABde|fedc d2 A2|"Em"B2 e2 e2 de|"A"f2 e2 e2 de|
"D"fedB ABde|faef d2 A2|"G"BcdB "A"ABAG|"D"F2 D2 D2:|
